static/logos/invision-glyph-color.svg

<svg width="50" height="50" viewBox="0 0 50 50" fill="none" xmlns="http://www.w3.org/2000/svg">
<g clip-path="url(#clip0_1_2293)">
<path d="M45.4813 0H4.53433C2.03433 0 0.0078125 2.02652 0.0078125 4.52652V45.4545C0.0078125 47.9735 2.03433 50 4.53433 50H45.4624C47.9624 50 49.9889 47.9735 49.9889 45.4735V4.52652C50.0078 2.02652 47.9813 0 45.4813 0Z" fill="#FF3366"/>
<path d="M16.7133 15.7386C18.38 15.7386 19.7625 14.4318 19.7625 12.7272C19.7625 11.0227 18.361 9.71588 16.7133 9.71588C15.0466 9.71588 13.6641 11.0227 13.6641 12.7272C13.6641 14.4318 15.0656 15.7386 16.7133 15.7386V15.7386Z" fill="white"/>
<path d="M10.3861 31.8561C10.2157 32.6136 10.121 33.447 10.121 34.1099C10.121 36.7614 11.5604 38.5227 14.6096 38.5227C17.1475 38.5227 19.1929 37.0265 20.6702 34.5833L19.7611 38.2008H24.799L27.6778 26.6667C28.3975 23.75 29.7801 22.2348 31.9013 22.2348C33.5679 22.2348 34.5907 23.2765 34.5907 24.9811C34.5907 25.4735 34.5528 26.0227 34.3634 26.5909L32.8861 31.8939C32.6589 32.6515 32.5642 33.428 32.5642 34.1477C32.5642 36.6667 34.0414 38.5038 37.1475 38.5038C39.799 38.5038 41.9013 36.7992 43.0755 32.7083L41.1058 31.9508C40.121 34.697 39.2687 35.1894 38.5869 35.1894C37.9051 35.1894 37.5452 34.7348 37.5452 33.8447C37.5452 33.447 37.6399 32.9924 37.7725 32.4432L39.2119 27.2727C39.5717 26.0606 39.7043 24.9811 39.7043 23.9962C39.7043 20.1326 37.3748 18.125 34.5339 18.125C31.8823 18.125 29.1929 20.5114 27.8482 23.0303L28.8331 18.5227H21.1437L20.0642 22.5H23.6626L21.4467 31.3636C19.7043 35.2273 16.5225 35.2841 16.1248 35.2083C15.4619 35.0568 15.0452 34.8106 15.0452 33.9583C15.0452 33.4659 15.1399 32.7652 15.3672 31.8939L18.7384 18.5227H10.1967L9.11719 22.5H12.6589L10.3861 31.8561Z" fill="white"/>
</g>
<defs>
<clipPath id="clip0_1_2293">
<rect width="50" height="50" fill="white"/>
</clipPath>
</defs>
</svg>

<svg xmlns="http://www.w3.org/2000/svg" width="64" height="64" fill="none" viewBox="0 0 50 50"><g clip-path="url(#a)"><path fill="#F36" d="M45.481 0H4.534A4.526 4.526 0 0 0 .008 4.527v40.928A4.53 4.53 0 0 0 4.534 50h40.928c2.5 0 4.527-2.026 4.527-4.526V4.526A4.498 4.498 0 0 0 45.48 0Z"/><path fill="#fff" d="M16.713 15.739c1.667 0 3.05-1.307 3.05-3.012 0-1.704-1.402-3.011-3.05-3.011-1.666 0-3.049 1.307-3.049 3.011 0 1.705 1.402 3.012 3.05 3.012ZM10.386 31.856c-.17.758-.265 1.591-.265 2.254 0 2.651 1.44 4.413 4.489 4.413 2.538 0 4.583-1.497 6.06-3.94l-.909 3.618H24.8l2.879-11.534c.72-2.917 2.102-4.432 4.223-4.432 1.667 0 2.69 1.041 2.69 2.746 0 .492-.038 1.042-.228 1.61l-1.477 5.303a7.906 7.906 0 0 0-.322 2.254c0 2.519 1.477 4.356 4.584 4.356 2.651 0 4.753-1.705 5.927-5.796l-1.97-.757c-.984 2.746-1.836 3.238-2.518 3.238-.682 0-1.042-.454-1.042-1.344 0-.398.095-.853.227-1.402l1.44-5.17c.36-1.212.492-2.292.492-3.277 0-3.863-2.33-5.871-5.17-5.871-2.652 0-5.341 2.386-6.686 4.905l.985-4.507h-7.69L20.065 22.5h3.599l-2.216 8.864c-1.743 3.863-4.924 3.92-5.322 3.844-.663-.151-1.08-.397-1.08-1.25 0-.492.095-1.193.322-2.064l3.371-13.371h-8.541L9.117 22.5h3.542l-2.273 9.356Z"/></g><defs><clipPath id="a"><path fill="#fff" d="M0 0h50v50H0z"/></clipPath></defs></svg>
